X: 396
T: Yangge
L: 1/8
M: 2/4
K: C
G2c c [I:setbarnb 1]| 
d> e d A | 
c c G A | 
G4 | 
G c c A | 
c> AG2 | 
G> c E D | 
C4 | 
G> E D C | 
E> G G A | 
G E D C | 
A,2z2 | 
e> d A c | 
dc2A | 
c Gc2 | 
G> E D C | 
e> d A c | 
dc2A | 
G2c2 | 
G> E D C |]

@@@ Tune index: 9270
